icons/lines/card-pos.svg

<svg xmlns="http://www.w3.org/2000/svg" width="24" height="24" viewBox="0 0 24 24" fill="none" stroke="currentColor" stroke-width="2" stroke-linecap="round" stroke-linejoin="round" >
  <path d="M3.92969 15.8792L15.8797 3.9292" stroke-miterlimit="10"/>
  <path d="M11.1011 18.279L12.3011 17.079" stroke-miterlimit="10"/>
  <path d="M13.793 15.5887L16.183 13.1987" stroke-miterlimit="10"/>
  <path d="M3.60127 10.239L10.2413 3.599C12.3613 1.479 13.4213 1.469 15.5213 3.569L20.4313 8.479C22.5313 10.579 22.5213 11.639 20.4013 13.759L13.7613 20.399C11.6413 22.519 10.5813 22.529 8.48127 20.429L3.57127 15.519C1.47127 13.419 1.47127 12.369 3.60127 10.239Z"/>
  <path d="M2 21.9985H22"/>
  </svg>

<svg xmlns="http://www.w3.org/2000/svg" width="24" height="24" viewBox="0 0 24 24" fill="none" stroke="currentColor" stroke-width="2" stroke-linecap="round" stroke-linejoin="round">
  <path d="M10.241 3.599c2.12-2.12 3.18-2.13 5.28-.03l4.91 4.91c2.1 2.1 2.09 3.16-.03 5.28l-6.64 6.64c-2.12 2.12-3.18 2.13-5.28.03l-4.91-4.91c-2.1-2.1-2.1-3.15.03-5.28z" />
  <path d="m11.101 18.279 1.2-1.2" />
  <path d="m13.793 15.589 2.39-2.39" />
  <path d="M2 21.999h20" />
  <path d="M3.93 15.88 15.88 3.93" />
</svg>
